X: 23
T:Jigg. TBe.023
M:6/8
L:1/8
Q:120
S:Thomas Bennet MS,1718, VWML
R:jigg
O:England
H:1718
Z:vmp.C. Graebe..
K:F major
c3d3 | c2B A/B/cF | FfF FfF | E2FG2C |!
 c3d3 | c2B A/B/cF |  FfF FfF | e>de f3 ||!
G3A3 | G2 F E/F/GC | CcC CcC | CcB A3 |!
A3B3 | A2 G  F/G/AD | DdD DdD | Dd^c d3 |!
 d3f3 | A2B cCC | D3 B3 | E2F GEC |!
 c3d3 | c2 B A/B/cF | FfF FfF | Ffe f3 ||
